X:1
T:Willie Coleman's
R:jig
M:6/8
S:
K:G
BAG AGE | GED GBd | edB deb | age dBA |
BAG AGE | GED GBd | edB dBA AGF G3 :|
|: g3 edB | deb age | g3 edB | GBd e3 |
g3 edB | deb age | d^cd gdB | AGF G3 :|


